X:58
T:Killoran's
M:6/8
I:speed 250
S:Tony Gordon, manuscript
K:D
|:DED F2B | A2D F2A | BcB A2F | E2D B,2E | 
DED F2B | A2D F2A | B2d e2c | d2B A2F :|
||A2B d2e | f2d d2f | g2e f2d | e2d B2d |
A2B d2e | f2d d2f | g2f e2d | B2c d2B ||
A2B d2e | f2d d2f | g2e f2d | e2d B2c | 
d3 d2c | d2f a2f | g2f e2c | d2B A2F||
